X: 34634
T: Road To Ballymac, The
R: reel
M: 4/4
K: Gmajor
Bd d2 edBd|egg2 a2 ga|bgag egde|gedB ABG2|
Bd d2 edBd|eg g2 a2 ga|bgag egdB|1 cAFA G2 GE:|2 cAFA G4||

